X:1
T:Wolfahrt Op.45 No. 39
T:Wohlfahrt. Op.45 No. 39
T:60 Etudes Book 2
T:Franz Wohlfahrt
T:1884
T:1884
C:Franz Wohlfahrt
Z:1884
L:1/8
M:4/4
K:C
V:1 treble nm="Violin" snm="Vln."
V:1
"^Moderato" (vG,2 A,B,) (uCEGc) | (vB!1!dfb) ud'4 | (d'2 b!4!g f!3!dBF) | (!4!AGEC G,4) | %4
 (G,2 A,B, CEGc) | (Adf!1!a d'4) | (b!4!gfd e!2!cGE) | (DGBA G!0!DB,A,) | (G,2 A,B, CEGc) | %9
 (B!1!dfb d'4) | (d'2 bg f!3!dBF) | (!4!AGEC G,4) | (A,2 B,^C DFAd) | (BGAB ceg!3!c') | %14
 (bd'c'b ac'ba) | (!4!ged!1!B GB,ED) | (C!4!A^F!4!e d^fa!4!c') | (!4!bgdB GB,ED) | %18
 (C!4!A^F!4!e d^f!3!a!4!c') | (!4!bgdB GDE=F) | (E^GBd cea!4!c') | (!3!a^fdc Bdg!2!b) | %22
 (ad'^c'b a!2!eg^f) | (dd'a^f d!0!A^F!4!A) | (D!4!ed^c =cbac) | (B!4!ed!0!D GBd_E) | %26
 (D!4!ed^c =cbac) | (B!4!edD GB!4!ed) | (B!1!d!4!g=f egf!1!G) | (!4!cegc' bd'c'!2!e) | %30
 (dgbd' c'a^fd) | (b!4!gd!3!B !1!GG,B,E) | (D!4!ed^c =cbac) | (B!4!edD GBd_E) | (Ded^c =cbac) | %35
 (B!4!edD GB!4!ed) | (B!1!dg=f egf!1!G) | (cegc' bd'c'!2!e) | (dgbd' c'a^fd) | (b!4!gd!3!B G4) | %40
 (G,2 A,B, CEGc) | (B!1!dfb d'4) | (d'2 bg f!3!dBF) | (!4!AGEC G,4) | (G,2 A,B, CEGc) | %45
 (Adf!1!a d'3 c') | (b!4!gfd !1!BGFD) | (B,G,B,D F!4!AGB,) | (CE!1!Gc egc'b) | (afde fdBG,) | %50
 (!1!CEGc egc'b) | (afde fd!3!BG,) | (!3!CG,CE GEGc) | (!4!eGc!0!e geg!3!c') | %54
 (!4!d'c'!4!ge !2!cGEG,) | C4- C2 z2 |] %56

